X: 1
T: Kerfank 1870 / Den Dro
O: trad. Bretagne
Z: 2019 John Chambers <jc:trillian.mit.edu>
S: NEFFA 2019 French Jam handout p.15 #1
Q: 1/4=160
M: C
L: 1/8
K: Am
"^A"|:\
"Am"A2e2 e2de | "F"f2e2 dcBc |\
"G"d2B2 "C"e2dc |1 BcAB "#m"c2B2 :|2 "Em"BABc "Am"A4 :|
"^B"|:\
"Am"A2A2 "G"B2cB | "F"A2A2 "Em"B2Bc |\
"G"d2B2 "C"e2dc |1 "F"BcAB "Em"c2B2 :|2 "Em"BABc "Am"A4 :|
